images/icon-fb-outline.svg

<svg class="w-6 h-6" width="24" height="24" viewBox="0 0 24 24" fill="none" xmlns="http://www.w3.org/2000/svg"><path d="M13 7C13 6.46957 13.2109 5.96101 13.5859 5.58594C13.961 5.21087 14.4696 5 15 5H17V3H15C13.9391 3 12.922 3.42173 12.1719 4.17188C11.4217 4.92202 11 5.93913 11 7V10C11 10.5523 10.5523 11 10 11H8V13H10C10.5523 13 11 13.4477 11 14V21H13V14C13 13.4477 13.4477 13 14 13H16.2197L16.7197 11H14C13.4477 11 13 10.5523 13 10V7ZM15 9H18C18.3079 9 18.5986 9.14205 18.7881 9.38477C18.9775 9.62741 19.0443 9.94354 18.9697 10.2422L17.9697 14.2422C17.8584 14.6874 17.4589 15 17 15H15V22C15 22.5523 14.5523 23 14 23H10C9.44772 23 9 22.5523 9 22V15H7C6.44772 15 6 14.5523 6 14V10L6.00488 9.89746C6.05621 9.39333 6.48232 9 7 9H9V7C9 5.4087 9.63259 3.88303 10.7578 2.75781C11.883 1.63259 13.4087 1 15 1H18L18.1025 1.00488C18.6067 1.05621 19 1.48232 19 2V6C19 6.55228 18.5523 7 18 7H15V9Z" fill="white" style="fill-opacity:1;"/></svg>

<svg xmlns="http://www.w3.org/2000/svg" width="24" height="24" fill="none" class="w-6 h-6" viewBox="0 0 24 24"><path fill="#fff" d="M13 7a2 2 0 0 1 2-2h2V3h-2a4 4 0 0 0-4 4v3a1 1 0 0 1-1 1H8v2h2a1 1 0 0 1 1 1v7h2v-7a1 1 0 0 1 1-1h2.22l.5-2H14a1 1 0 0 1-1-1zm2 2h3a1 1 0 0 1 .97 1.242l-1 4A1 1 0 0 1 17 15h-2v7a1 1 0 0 1-1 1h-4a1 1 0 0 1-1-1v-7H7a1 1 0 0 1-1-1v-4l.005-.103A1 1 0 0 1 7 9h2V7a6 6 0 0 1 6-6h3l.102.005A1 1 0 0 1 19 2v4a1 1 0 0 1-1 1h-3z"/></svg>
